X:1
T:Title
%%score 1 2
L:1/8
Q:1/4=80
M:4/4
K:G
V:1 treble nm="Strings 1, Treble"
V:2 bass nm="Strings 1, Bass"
V:1
 z4 z2 z D | [DG][DG][DG][DB] [DA] [DG]2 [DG] | [EA][EG][EG][CE] [B,D]3 [B,D] | %3
w: 1.~Why~|stand~ ye~ all~ day~ i dle?~ The~|har vest~ time~ is~ here,~ Be|
 [B,D][B,D][DG][DA] [DB] [DB]2 [DG] | [GB][GB][GB][Gd] [FA]3 D | %5
w: hold,~ with~ flam ing~ sick le~ the~|reap ers~ gath er~ near;~ Oh,~|
 [DB][DB][DB][DB] [CA] [B,G]2 [DG] | [EG][EG][CE][EG] [Ec]3 [Ge] | %7
w: hear~ the~ ear nest~ plead ings~ which~|come~ from~ eve ry~ land,~ "Lord,~|
 [Gd][Gd][Gd][G^c] [Gd] [GB]2 [DG] | [DF][DG][DA][DF] [DG]3 [GB] | %9
w: send~ us~ gos pel~ work ers,~ to~|lend~ a~ help ing~ hand."~ *|
 [Gd][Gd][Gd][GB] [Ge] [Gd]2 [GB] | GG[FA][FA] [GB]3 [GB] | [Gd][Gd][Gd][GB] [Ge] [Gd]2 [DG] | %12
w: |||
 [GB][Gd]G[GB] [FA]3 D | [DB][DB][DB][DB] [CA] [B,G]2 [DG] | [EG][EG][CE][EG] [Ec]3 [Ge] | %15
w: |||
 [Gd][Gd][Gd][G^c] [Gd] [GB]2 [DG] | [DF][DG][DA][DF] [DG]4 |] %17
w: ||
V:2
 z4 z2 z [G,B,] | [G,B,][G,B,][G,B,][G,D] [G,C] [G,B,]2 [G,B,] | %2
 [C,C][C,C][C,G,][C,G,] [G,,G,]3 [G,,G,] | [G,,G,][G,,G,][B,,G,][D,F,] G, G,2 [G,B,] | %4
 [G,D][G,D][G,D][B,,D] [D,D]3 [D,F,] | [G,,G,][G,,G,][G,,G,][G,,G,] [G,,G,] [G,,G,]2 [G,,B,] | %6
 [C,C][C,C][C,G,][C,G,] [C,G,]3 [C,C] | [G,B,][G,B,][G,B,][G,_B,] [G,=B,] [G,D]2 [B,,G,] | %8
 [D,A,][D,B,][D,C][D,A,] [G,,G,B,]3 [G,D] | [G,B,][G,B,][G,B,][G,D] [G,C] [G,B,]2 [G,D] | %10
 [E,^C][E,C][D,D][D,D] [G,D]3 [G,D] | [G,B,][G,B,][G,B,][G,D] [G,C] [G,B,]2 [G,B,] | %12
 [G,D][G,B,][G,B,][G,D] [D,D]3 [D,F,] | [G,,G,][G,,G,][G,,G,][G,,G,] [G,,G,] [G,,G,]2 [G,,B,] | %14
 [C,C][C,C][C,G,][C,G,] [C,G,]3 [C,C] | [G,B,][G,B,][G,B,][G,_B,] [G,=B,] [G,D]2 [B,,G,] | %16
 [D,A,][D,B,][D,C][D,A,] [G,,G,B,]4 |] %17

